X: 19219
T: Isobel's
R: waltz
M: 3/4
K: Amajor
E (3FAB|c3E (3FAc|B3E (3cBA|F3A FB,|C3A, (3B,CE|
D3A, DC|B,3A, B,C|A,4 A,B,|A,3E (3FAB|
c3E (3FAc|B3E (3cBG|AB AG FB,|C3E (3GAB|
dc BA Bc|BA GA Bc|A4 AB|A3:|
|:E (3FAB|c3A (3cde|f3a ga|ec BA ce|B3A GA|
E3A GA|EC B,A, B,C|EF AB cd|Bc ef eg|
a4- ag|ag ec BA|dc BA ce|B3E (3FAB|
dc BA Bc|BA GA Bc|A4 AB|A3:|

